dist/img/icons/main/advantages/tourist.svg

<svg width="70" height="70" viewBox="0 0 70 70" fill="none" xmlns="http://www.w3.org/2000/svg">
<path d="M22.7672 33.8335V36.1669C22.7672 37.4537 21.7208 38.5002 20.4338 38.5002H16.9338C15.647 38.5002 14.6005 37.4538 14.6005 36.1669V18.6669C14.6005 17.3801 15.6469 16.3335 16.9338 16.3335H20.4338C21.3917 16.3335 22.2515 16.9203 22.6015 17.8047L22.7812 18.8629L25.0819 18.472L24.8835 17.3054C24.8719 17.239 24.8555 17.1747 24.8333 17.1117C24.1765 15.2497 22.4078 14.0002 20.4338 14.0002H20.4326H16.9326C14.3589 14.0002 12.266 16.0933 12.266 18.6669V36.1669C12.266 38.7406 14.359 40.8335 16.9326 40.8335H20.4326C23.0063 40.8335 25.0992 38.7405 25.1005 36.1669V33.8335H22.7672Z" fill="#007AFF"/>
<path d="M18.6827 3.49988C15.1442 3.49988 12.2661 6.37808 12.2661 9.9165C12.2661 13.4549 15.1443 16.3331 18.6827 16.3331C22.2212 16.3331 25.0994 13.4549 25.0994 9.9165C25.0994 6.37808 22.2213 3.49988 18.6827 3.49988ZM18.6827 13.9999C16.4311 13.9999 14.5994 12.1683 14.5994 9.9165C14.5994 7.66488 16.431 5.83312 18.6827 5.83312C20.9344 5.83312 22.7661 7.66474 22.7661 9.9165C22.7661 12.1683 20.9344 13.9999 18.6827 13.9999Z" fill="#007AFF"/>
<path d="M13.4327 24.4997H10.8661C9.06484 24.4997 7.59949 25.965 7.59949 27.7663V32.8997C7.59949 34.701 9.06484 36.1663 10.8661 36.1663H13.4327C14.0767 36.1663 14.5993 35.6449 14.5993 34.9997V25.6663C14.5993 25.0224 14.0767 24.4997 13.4327 24.4997ZM12.2661 33.8331H10.8661C10.3516 33.8331 9.93273 33.4143 9.93273 32.8997V27.7663C9.93273 27.2518 10.3515 26.8329 10.8661 26.8329H12.2661V33.8331Z" fill="#007AFF"/>
<path d="M33.2662 14.0001H28.5996V16.3335H33.2662C35.1959 16.3335 36.7662 17.9039 36.7662 19.8335V39.6669H25.0996V31.5001H22.7662V40.8335C22.7662 41.4787 23.2889 42.0001 23.9329 42.0001H37.9329C38.578 42.0001 39.0995 41.4787 39.0995 40.8335V19.8335C39.0995 16.6169 36.4827 14.0001 33.2662 14.0001Z" fill="#007AFF"/>
<path d="M37.7415 4.35975L35.4898 4.97348C35.5657 5.25115 35.603 5.53703 35.6007 5.8333V10.4999C35.6007 12.4296 34.0304 13.9999 32.1007 13.9999C30.1711 13.9999 28.6007 12.4296 28.6007 10.4999V5.82277C28.5984 5.53457 28.6357 5.24992 28.7104 4.97457L26.4598 4.35742C26.3268 4.84045 26.2615 5.34098 26.2661 5.8333V10.4999C26.2661 13.7164 28.8829 16.3333 32.0995 16.3333C35.3159 16.3333 37.9329 13.7165 37.934 10.4999V5.84369C37.9386 5.3433 37.8733 4.84387 37.7415 4.35975Z" fill="#007AFF"/>
<path d="M39.0994 0H30.9327C28.359 0 26.2661 2.09303 26.2661 4.66662V9.33324C26.2661 9.80451 26.5508 10.2304 26.9859 10.4113C27.1306 10.4707 27.2822 10.4999 27.4327 10.4999C27.7361 10.4999 28.0347 10.3809 28.2576 10.1581L32.5824 5.83324H35.5994C38.1731 5.83324 40.266 3.74021 40.266 1.16662C40.2661 0.522676 39.7445 0 39.0994 0ZM35.5994 3.5H32.0994C31.7902 3.5 31.4938 3.6225 31.2745 3.8418L28.5994 6.51697V4.66662C28.5994 3.37982 29.6458 2.33324 30.9327 2.33324H37.619C37.2165 3.02982 36.4616 3.5 35.5994 3.5Z" fill="#007AFF"/>
<path d="M49.4758 61.3109L38.9758 40.3109L36.8886 41.355L46.8672 61.3109L44.2363 62.6257L34.9251 46.1174C34.3452 45.03 33.217 44.3463 31.9711 44.3336C30.1115 44.3336 28.5995 45.8456 28.5995 47.7052V52.8782C28.5913 54.2875 27.7466 55.5475 26.4447 56.0913L16.3215 60.3356L15.0218 57.7374L24.4065 53.5665C24.8277 53.3786 25.0995 52.9622 25.0995 52.5002V40.8336H22.7661V51.7431L12.9591 56.1006C12.6686 56.23 12.4423 56.4727 12.335 56.7725C12.2277 57.0724 12.2475 57.4038 12.3898 57.6884L14.7232 62.355C14.9973 62.9045 15.6484 63.1449 16.2177 62.9092L27.3454 58.2436C29.5118 57.3395 30.92 55.2395 30.9329 52.8851V47.7051C30.9329 47.1322 31.3984 46.6667 31.9595 46.6667C32.3409 46.6703 32.6875 46.8803 32.88 47.2395L42.75 64.7395C42.9647 65.1176 43.3579 65.3333 43.7673 65.3333C43.9436 65.3333 44.1209 65.2937 44.2877 65.2096L48.9543 62.8762C49.5306 62.5884 49.764 61.8872 49.4758 61.3109Z" fill="#007AFF"/>
<path d="M18.6163 64.9402L14.4747 56.6452C14.337 56.3687 14.0943 56.1575 13.8004 56.0595C13.5064 55.9591 13.1856 55.9836 12.9091 56.1225L8.2425 58.4559C7.96606 58.5947 7.75606 58.8373 7.65803 59.1302C7.56 59.4241 7.58338 59.7462 7.72215 60.0227L11.7472 68.0587C12.3431 69.2557 13.5424 70 14.8794 70H15.486C16.823 70 18.0247 69.2545 18.6173 68.0564C19.1028 67.0811 19.1028 65.9166 18.6163 64.9402ZM16.5303 67.0191C16.3319 67.4181 15.9317 67.6666 15.4861 67.6666H14.8795C14.435 67.6666 14.0349 67.4181 13.8365 67.0191C13.8365 67.0179 13.8354 67.0168 13.8354 67.0145L10.3331 60.0215L12.9114 58.7311L16.5304 65.9808C16.6924 66.3063 16.6924 66.6937 16.5303 67.0191Z" fill="#007AFF"/>
<path d="M55.3079 61.3082C54.3746 59.452 52.1043 58.6938 50.2435 59.6224L43.2435 63.1224C42.6672 63.4106 42.4338 64.1117 42.722 64.6881L45.0554 69.3547C45.2607 69.7642 45.6725 69.9999 46.1007 69.9999C46.277 69.9999 46.4543 69.9602 46.6211 69.8761L53.6211 66.3761C53.6211 66.3761 53.6223 66.3749 53.6234 66.3749C55.4783 65.4429 56.2354 63.1725 55.3079 61.3082ZM52.5767 64.289L46.6208 67.2675L45.3317 64.6881L51.2853 61.7107C51.9958 61.3561 52.8661 61.6466 53.2208 62.3524C53.5742 63.0629 53.2849 63.9309 52.5767 64.289Z" fill="#007AFF"/>
<path d="M18.6827 8.16675C17.7179 8.16675 16.9327 8.95192 16.9327 9.91675C16.9327 10.8816 17.7179 11.6667 18.6827 11.6667C19.6476 11.6667 20.4327 10.8816 20.4327 9.91675C20.4327 8.95192 19.6476 8.16675 18.6827 8.16675ZM18.6827 10.5001C18.3608 10.5001 18.0994 10.2389 18.0994 9.91675C18.0994 9.59478 18.3606 9.33337 18.6827 9.33337C19.0047 9.33337 19.2661 9.59464 19.2661 9.91675C19.2661 10.2389 19.0047 10.5001 18.6827 10.5001Z" fill="#007AFF"/>
<path d="M54.8857 21.7692C54.7667 21.6117 54.6371 21.4635 54.4984 21.3247C53.7342 20.5653 52.7227 20.1487 51.6459 20.1487C51.6412 20.1487 51.6366 20.1487 51.6307 20.1487C50.5503 20.1522 49.5342 20.5769 48.7759 21.341L43.8455 26.2714L38.83 20.2526L37.0368 21.746L42.8702 28.746C43.0813 28.9979 43.387 29.1497 43.7148 29.1647C44.0403 29.1776 44.3611 29.0562 44.5921 28.824L50.4289 22.9883C50.7509 22.664 51.1802 22.4832 51.64 22.4821C51.6411 22.4821 51.6435 22.4821 51.6459 22.4821C52.1009 22.4821 52.5314 22.6583 52.8534 22.979C52.9128 23.0385 52.97 23.1028 53.0191 23.1692C53.5301 23.8529 53.4625 24.8224 52.8592 25.4255L47.0901 31.1946C46.1662 32.1303 44.8839 32.6669 43.5656 32.6669C43.561 32.6669 43.5621 32.6669 43.5517 32.6669C41.8846 32.6669 40.341 31.8374 39.4112 30.4374L38.8978 29.6791L36.9658 30.988L37.4733 31.7359C38.8277 33.7812 41.098 35.0003 43.548 35.0003C43.5596 35.0003 43.5609 35.0003 43.5667 35.0003C45.5034 35.0003 47.3923 34.2105 48.7457 32.8385L54.509 27.0751C55.9264 25.6565 56.0885 23.3757 54.8857 21.7692Z" fill="#007AFF"/>
<path d="M35.4198 31.9411C35.2016 30.8759 34.5822 29.9589 33.713 29.3848L27.2077 24.7064L32.4729 21.4923C32.4868 21.4853 32.4997 21.4761 32.5125 21.4678C32.5848 21.42 32.6548 21.3698 32.7261 21.315C33.5859 20.6536 34.1354 19.6968 34.2754 18.6212C34.4143 17.5455 34.1272 16.4803 33.4762 15.6346C32.1812 13.8975 29.7523 13.4809 27.9812 14.6662L19.3887 20.0282C17.8475 21.0561 16.9295 22.7769 16.9329 24.6248C16.9305 26.4787 17.8475 28.1984 19.363 29.2087L29.1654 36.1446C29.8595 36.6101 30.647 36.833 31.4264 36.833C32.6702 36.833 33.8939 36.2648 34.6884 35.1973C34.7386 35.1308 34.7852 35.0655 34.8272 35.0012C35.4268 34.0936 35.638 33.0062 35.4198 31.9411ZM32.8218 33.8007C32.2687 34.5427 31.2316 34.7212 30.4873 34.223L20.6837 27.2861C19.7948 26.6921 19.2639 25.7005 19.2662 24.6261C19.2639 23.5562 19.7936 22.5646 20.6534 21.9894L29.2482 16.6262C29.5434 16.4291 29.8782 16.3334 30.2107 16.3334C30.7439 16.3334 31.2712 16.5796 31.6177 17.045C31.8989 17.4102 32.0214 17.8639 31.9618 18.3214C31.9023 18.7775 31.669 19.1848 31.3061 19.4636L24.4916 23.6321C24.1568 23.8362 23.9479 24.1933 23.9329 24.5841C23.9189 24.975 24.1009 25.3471 24.4182 25.5757L32.39 31.3075C32.7773 31.563 33.0422 31.955 33.1355 32.41C33.2277 32.865 33.1379 33.3282 32.8218 33.8007Z" fill="#007AFF"/>
<path d="M31.1733 19.7628L27.5785 26.2726L29.6211 27.4005L33.2159 20.8907L31.1733 19.7628Z" fill="#007AFF"/>
<path d="M25.2197 32.1461L22.8866 36.8124L24.9735 37.8558L27.3066 33.1896L25.2197 32.1461Z" fill="#007AFF"/>
<path d="M23.9327 33.8338H13.4327V36.1672H23.9327V33.8338Z" fill="#007AFF"/>
<path d="M50.7346 18.403L48.4631 18.9312L60.1297 69.0998L62.4012 68.5716L50.7346 18.403Z" fill="#007AFF"/>
<path d="M30.9328 14.0001H18.0994V16.3335H30.9328V14.0001Z" fill="#007AFF"/>
</svg>

<svg width="70" height="70" fill="none" xmlns="http://www.w3.org/2000/svg"><path d="M22.767 33.834v2.333a2.336 2.336 0 01-2.333 2.333h-3.5a2.336 2.336 0 01-2.334-2.333v-17.5a2.336 2.336 0 012.334-2.334h3.5c.958 0 1.817.587 2.168 1.472l.18 1.058 2.3-.391-.198-1.167a1.203 1.203 0 00-.05-.193 4.671 4.671 0 00-4.4-3.112h-3.501a4.671 4.671 0 00-4.667 4.667v17.5a4.671 4.671 0 004.667 4.666h3.5a4.673 4.673 0 004.668-4.666v-2.334h-2.334z" fill="#007AFF"/><path d="M18.683 3.5a6.423 6.423 0 00-6.417 6.416 6.424 6.424 0 006.417 6.417 6.424 6.424 0 006.416-6.416A6.423 6.423 0 0018.683 3.5zm0 10.5a4.088 4.088 0 01-4.084-4.084 4.088 4.088 0 014.084-4.083 4.088 4.088 0 014.083 4.083A4.088 4.088 0 0118.683 14zm-5.25 10.5h-2.567A3.27 3.27 0 007.6 27.766V32.9a3.27 3.27 0 003.267 3.266h2.567c.644 0 1.166-.521 1.166-1.166v-9.334c0-.644-.522-1.166-1.166-1.166zm-1.167 9.333h-1.4a.935.935 0 01-.933-.933v-5.134c0-.514.418-.933.933-.933h1.4v7zm21-19.833H28.6v2.334h4.666c1.93 0 3.5 1.57 3.5 3.5v19.833H25.1V31.5h-2.334v9.334c0 .645.523 1.166 1.167 1.166h14c.645 0 1.166-.521 1.166-1.166v-21A5.84 5.84 0 0033.267 14z" fill="#007AFF"/><path d="M37.742 4.36l-2.252.613c.076.278.113.564.11.86V10.5c0 1.93-1.57 3.5-3.5 3.5-1.929 0-3.5-1.57-3.5-3.5V5.823a3.14 3.14 0 01.11-.848l-2.25-.618a5.392 5.392 0 00-.194 1.476V10.5a5.84 5.84 0 005.834 5.833 5.842 5.842 0 005.834-5.833V5.844c.005-.5-.06-1-.192-1.484z" fill="#007AFF"/><path d="M39.1 0h-8.167a4.671 4.671 0 00-4.667 4.667v4.666a1.169 1.169 0 001.167 1.167c.303 0 .602-.12.825-.342l4.324-4.325H35.6a4.671 4.671 0 004.667-4.666A1.168 1.168 0 0039.099 0zm-3.5 3.5h-3.5c-.31 0-.606.123-.826.342L28.6 6.517v-1.85a2.336 2.336 0 012.334-2.334h6.686A2.332 2.332 0 0135.6 3.5zm13.876 57.81l-10.5-21-2.087 1.045 9.978 19.956-2.63 1.315-9.312-16.509a3.377 3.377 0 00-2.954-1.783 3.375 3.375 0 00-3.372 3.371v5.173a3.497 3.497 0 01-2.154 3.213l-10.123 4.245-1.3-2.599 9.385-4.17a1.17 1.17 0 00.692-1.067V40.834h-2.333v10.91L12.96 56.1a1.167 1.167 0 00-.57 1.587l2.334 4.667c.274.55.925.79 1.495.554l11.127-4.665a5.826 5.826 0 003.588-5.359v-5.18c0-.573.465-1.038 1.026-1.038.382.003.729.213.921.572l9.87 17.5a1.168 1.168 0 001.538.47l4.666-2.333c.577-.288.81-.989.522-1.565z" fill="#007AFF"/><path d="M18.616 64.94l-4.141-8.295a1.166 1.166 0 00-1.566-.523l-4.667 2.334a1.17 1.17 0 00-.52 1.567l4.025 8.036A3.48 3.48 0 0014.88 70h.607a3.474 3.474 0 003.131-1.944 3.512 3.512 0 000-3.116zm-2.086 2.08a1.16 1.16 0 01-1.044.647h-.607a1.16 1.16 0 01-1.043-.648v-.005l-3.503-6.992 2.578-1.29 3.62 7.249a1.17 1.17 0 010 1.038zm38.778-5.712a3.786 3.786 0 00-5.065-1.686l-7 3.5c-.576.289-.81.99-.521 1.566l2.333 4.667a1.167 1.167 0 001.566.521l7-3.5.002-.001a3.789 3.789 0 001.685-5.067zm-2.731 2.981l-5.956 2.978-1.29-2.579 5.954-2.977a1.449 1.449 0 011.936.641c.353.71.064 1.579-.644 1.937zM18.683 8.167c-.965 0-1.75.785-1.75 1.75s.785 1.75 1.75 1.75 1.75-.785 1.75-1.75-.785-1.75-1.75-1.75zm0 2.333a.583.583 0 110-1.167.583.583 0 010 1.167zm36.203 11.27a4.274 4.274 0 00-.388-.445 4.018 4.018 0 00-2.852-1.176h-.015a4.018 4.018 0 00-2.855 1.192l-4.93 4.93-5.016-6.018-1.793 1.493 5.833 7c.211.252.517.404.845.419.325.013.646-.109.877-.341l5.837-5.836a1.7 1.7 0 011.211-.506h.006a1.702 1.702 0 011.373.687 1.736 1.736 0 01-.16 2.256l-5.769 5.77a4.98 4.98 0 01-3.524 1.472h-.014a4.954 4.954 0 01-4.14-2.23l-.514-.758-1.932 1.309.507.748A7.267 7.267 0 0043.548 35h.019c1.936 0 3.825-.79 5.179-2.161l5.763-5.764a4.083 4.083 0 00.377-5.306zM35.42 31.941a4.02 4.02 0 00-1.707-2.556l-6.505-4.679 5.265-3.214c.014-.007.027-.016.04-.024a4.032 4.032 0 001.763-2.847 4.028 4.028 0 00-.8-2.986c-1.295-1.737-3.724-2.154-5.495-.969l-8.592 5.362a5.505 5.505 0 00-2.456 4.597 5.493 5.493 0 002.43 4.584l9.802 6.936a4.047 4.047 0 002.261.688 4.057 4.057 0 003.401-1.832c.6-.907.811-1.995.593-3.06zm-2.598 1.86c-.553.742-1.59.92-2.335.422l-9.803-6.937a3.181 3.181 0 01-1.418-2.66 3.165 3.165 0 011.387-2.637l8.595-5.363a1.73 1.73 0 01.963-.293c.533 0 1.06.247 1.407.712a1.723 1.723 0 01-.312 2.419l-6.814 4.168a1.166 1.166 0 00-.074 1.944l7.972 5.732c.387.255.652.647.745 1.102.093.455.003.918-.313 1.39z" fill="#007AFF"/><path d="M31.173 19.763l-3.595 6.51 2.043 1.128 3.595-6.51-2.043-1.128zM25.22 32.146l-2.333 4.666 2.087 1.044 2.333-4.666-2.087-1.044z" fill="#007AFF"/><path d="M23.933 33.834h-10.5v2.333h10.5v-2.333zm26.802-15.431l-2.272.528L60.13 69.1l2.271-.528-11.666-50.169zM30.933 14H18.099v2.334h12.834V14z" fill="#007AFF"/></svg>
